public/logo.svg

<svg xmlns="http://www.w3.org/2000/svg" viewBox="0 0 200 200"  fill="#2970FF"><path d="M102 17.5V33h12V2h-12v15.5m-49.5-6.392c-2.2 1.679-3.886 3.472-3.746 3.985C49.296 17.08 67.222 41 68.17 41c.552 0 2.969-1.412 5.373-3.138l4.369-3.138-4.05-5.612c-2.228-3.087-6.562-9.099-9.632-13.362-3.069-4.263-6.064-7.737-6.655-7.722-.591.015-2.875 1.401-5.075 3.08m99.859 5.142a2916.761 2916.761 0 00-9.646 13.315l-3.635 5.066 4.858 3.627c4.501 3.36 4.966 3.503 6.32 1.935 2.376-2.752 17.767-24.248 18.016-25.162.242-.891-7.684-7.031-9.078-7.031-.453 0-3.528 3.713-6.835 8.25M74.005 46.668C60.42 51.421 51.654 63.808 50.28 80.196c-.688 8.211.924 16.959 4.889 26.523l2.992 7.219-19.028 22.281L20.105 158.5l19.19 19.252c10.555 10.589 19.494 19.139 19.864 19 .37-.138 4.436-5.418 9.036-11.732l8.364-11.479 29.793-3.721c21.96-2.742 30.629-4.205 32.971-5.564 4.093-2.374 38.285-44.539 39.773-49.047 2.408-7.297-1.302-15.085-8.756-18.383l-4.345-1.922.633-6.815c.908-9.769-1.624-20.357-6.677-27.925-10.23-15.32-28.33-19.125-46.658-9.81l-4.72 2.399-5.542-2.817c-9.932-5.047-20.53-6.24-29.026-3.268M75.5 59.662c-4.412 2.326-7.424 5.334-9.847 9.838-1.831 3.402-2.153 5.645-2.153 15 0 10.334.196 11.415 3.248 17.858 2.542 5.366 3.609 6.719 4.91 6.22C77.142 106.474 109.654 99 113.325 99c9.12 0 16.08 9.328 13.616 18.25-1.678 6.077-5.115 9.129-14.9 13.233-4.973 2.085-9.041 4.179-9.041 4.654 0 1.171-.483 1.252 13.276-2.233l12.224-3.096 10.5-12.824c12.389-15.133 14.849-20.42 14.941-32.108.132-16.961-7.921-26.813-21.941-26.844-5.954-.013-13.718 2.99-19.882 7.692-2.712 2.068-3.721 2.36-5.007 1.449-4.353-3.084-10.673-6.607-13.955-7.779-5.014-1.791-14.009-1.655-17.656.268m73.492 64.312c-11.911 14.352-14.66 17.129-17.796 17.973-2.04.549-10.006 2.526-17.702 4.393L99.5 149.734l-6.12-6.636c-10.891-11.809-11.879-13.169-10.294-14.167.778-.49 8.276-3.648 16.664-7.018 12.26-4.926 15.25-6.505 15.25-8.052 0-1.058-.606-2.156-1.346-2.44-1.354-.52-39.993 8.729-44.654 10.689-1.375.578-9.093 8.83-17.15 18.338L37.2 157.735l10.263 10.229 10.264 10.228 5.644-8.009c4.989-7.079 6.08-8.078 9.387-8.596 2.058-.322 16.565-2.182 32.238-4.132 15.673-1.951 28.795-3.864 29.161-4.251.366-.387 7.896-9.704 16.734-20.704 9.387-11.684 16.076-20.891 16.088-22.143.017-1.756-1.662-3.357-3.521-3.357-.208 0-6.717 7.638-14.466 16.974" fill-rule="evenodd"/></svg>

<svg xmlns="http://www.w3.org/2000/svg" viewBox="0 0 960 960">
	<path d="M 102 17.500 L 102 33 108 33 L 114 33 114 17.500 L 114 2 108 2 L 102 2 102 17.500 M 52.500 11.108 C 50.300 12.787, 48.614 14.580, 48.754 15.093 C 49.296 17.080, 67.222 41, 68.170 41 C 68.722 41, 71.139 39.588, 73.543 37.862 L 77.912 34.724 73.862 29.112 C 71.634 26.025, 67.300 20.013, 64.230 15.750 C 61.161 11.487, 58.166 8.013, 57.575 8.028 C 56.984 8.043, 54.700 9.429, 52.500 11.108 M 152.359 16.250 C 149.053 20.788, 144.712 26.779, 142.713 29.565 L 139.078 34.631 143.936 38.258 C 148.437 41.618, 148.902 41.761, 150.256 40.193 C 152.632 37.441, 168.023 15.945, 168.272 15.031 C 168.514 14.140, 160.588 8, 159.194 8 C 158.741 8, 155.666 11.713, 152.359 16.250 M 74.005 46.668 C 60.420 51.421, 51.654 63.808, 50.280 80.196 C 49.592 88.407, 51.204 97.155, 55.169 106.719 L 58.161 113.938 39.133 136.219 L 20.105 158.500 39.295 177.752 C 49.850 188.341, 58.789 196.891, 59.159 196.752 C 59.529 196.614, 63.595 191.334, 68.195 185.020 L 76.559 173.541 106.352 169.820 C 128.312 167.078, 136.981 165.615, 139.323 164.256 C 143.416 161.882, 177.608 119.717, 179.096 115.209 C 181.504 107.912, 177.794 100.124, 170.340 96.826 L 165.995 94.904 166.628 88.089 C 167.536 78.320, 165.004 67.732, 159.951 60.164 C 149.721 44.844, 131.621 41.039, 113.293 50.354 L 108.573 52.753 103.031 49.936 C 93.099 44.889, 82.501 43.696, 74.005 46.668 M 75.500 59.662 C 71.088 61.988, 68.076 64.996, 65.653 69.500 C 63.822 72.902, 63.500 75.145, 63.500 84.500 C 63.500 94.834, 63.696 95.915, 66.748 102.358 C 69.290 107.724, 70.357 109.077, 71.658 108.578 C 77.142 106.474, 109.654 99, 113.325 99 C 122.445 99, 129.405 108.328, 126.941 117.250 C 125.263 123.327, 121.826 126.379, 112.041 130.483 C 107.068 132.568, 103 134.662, 103 135.137 C 103 136.308, 102.517 136.389, 116.276 132.904 L 128.500 129.808 139 116.984 C 151.389 101.851, 153.849 96.564, 153.941 84.876 C 154.073 67.915, 146.020 58.063, 132 58.032 C 126.046 58.019, 118.282 61.022, 112.118 65.724 C 109.406 67.792, 108.397 68.084, 107.111 67.173 C 102.758 64.089, 96.438 60.566, 93.156 59.394 C 88.142 57.603, 79.147 57.739, 75.500 59.662 M 148.992 123.974 C 137.081 138.326, 134.332 141.103, 131.196 141.947 C 129.156 142.496, 121.190 144.473, 113.494 146.340 L 99.500 149.734 93.380 143.098 C 82.489 131.289, 81.501 129.929, 83.086 128.931 C 83.864 128.441, 91.362 125.283, 99.750 121.913 C 112.010 116.987, 115 115.408, 115 113.861 C 115 112.803, 114.394 111.705, 113.654 111.421 C 112.300 110.901, 73.661 120.150, 69 122.110 C 67.625 122.688, 59.907 130.940, 51.850 140.448 L 37.200 157.735 47.463 167.964 L 57.727 178.192 63.371 170.183 C 68.360 163.104, 69.451 162.105, 72.758 161.587 C 74.816 161.265, 89.323 159.405, 104.996 157.455 C 120.669 155.504, 133.791 153.591, 134.157 153.204 C 134.523 152.817, 142.053 143.500, 150.891 132.500 C 160.278 120.816, 166.967 111.609, 166.979 110.357 C 166.996 108.601, 165.317 107, 163.458 107 C 163.250 107, 156.741 114.638, 148.992 123.974" stroke="none" fill="black" fill-rule="evenodd"></path>
</svg>
